usr/share/icons/biglinux-icons-material/scalable/apps/katomic.svg

<?xml version="1.0" encoding="UTF-8" standalone="no"?>
<svg
   width="24"
   height="24"
   viewBox="0 0 6.349875 6.349875"
   version="1.1"
   id="svg23336"
   sodipodi:docname="org.kde.katomic.svg"
   xml:space="preserve"
   inkscape:version="1.2.2 (b0a8486541, 2022-12-01)"
   xmlns:inkscape="http://www.inkscape.org/namespaces/inkscape"
   xmlns:sodipodi="http://sodipodi.sourceforge.net/DTD/sodipodi-0.dtd"
   xmlns:xlink="http://www.w3.org/1999/xlink"
   xmlns="http://www.w3.org/2000/svg"
   xmlns:svg="http://www.w3.org/2000/svg"><sodipodi:namedview
     id="namedview23338"
     pagecolor="#ffffff"
     bordercolor="#000000"
     borderopacity="0.25"
     inkscape:showpageshadow="2"
     inkscape:pageopacity="0.0"
     inkscape:pagecheckerboard="0"
     inkscape:deskcolor="#d1d1d1"
     showgrid="false"
     inkscape:zoom="6.828125"
     inkscape:cx="-14.938215"
     inkscape:cy="28.118993"
     inkscape:window-width="2560"
     inkscape:window-height="998"
     inkscape:window-x="1680"
     inkscape:window-y="0"
     inkscape:window-maximized="1"
     inkscape:current-layer="svg23336" /><defs
     id="defs23310"><radialGradient
       id="h"
       cx="24.75"
       cy="26"
       r="2.5"
       gradientTransform="matrix(0.26458,0,0,0.26458,1.331,3.408)"
       gradientUnits="userSpaceOnUse"
       xlink:href="#a" /><radialGradient
       id="g"
       cx="26.75"
       cy="25.25"
       r="2.5"
       gradientTransform="matrix(0.26458,0,0,0.26458,1.331,3.408)"
       gradientUnits="userSpaceOnUse"
       xlink:href="#b" /><radialGradient
       id="f"
       cx="22.799999"
       cy="25"
       r="2.5"
       gradientTransform="matrix(0.26458,0,0,0.26458,1.331,3.408)"
       gradientUnits="userSpaceOnUse"
       xlink:href="#b" /><radialGradient
       id="e"
       cx="27"
       cy="22.75"
       r="2.5"
       gradientTransform="matrix(0.26458,0,0,0.26458,1.331,3.408)"
       gradientUnits="userSpaceOnUse"
       xlink:href="#a" /><radialGradient
       id="d"
       cx="24.75"
       cy="22"
       r="2.5"
       gradientTransform="matrix(0.26458,0,0,0.26458,1.331,3.408)"
       gradientUnits="userSpaceOnUse"
       xlink:href="#b" /><radialGradient
       id="c"
       cx="23"
       cy="22.5"
       r="2.5"
       gradientTransform="matrix(0.26458,0,0,0.26458,1.331,3.408)"
       gradientUnits="userSpaceOnUse"
       xlink:href="#a" /><linearGradient
       id="a"><stop
         stop-color="#bfbfef"
         offset="0"
         id="stop23300" /><stop
         stop-color="#a6a6ea"
         offset="1"
         id="stop23302" /></linearGradient><linearGradient
       id="b"><stop
         stop-color="#dedede"
         offset="0"
         id="stop23305" /><stop
         stop-color="#d3d3d3"
         offset="1"
         id="stop23307" /></linearGradient><radialGradient
       id="paint0_radial_16_57"
       cx="0"
       cy="0"
       r="1"
       gradientUnits="userSpaceOnUse"
       gradientTransform="matrix(0,5.8207186,-5.8207186,0,3.1749342,0.26457032)"><stop
         stop-color="#777777"
         id="stop23473" /><stop
         offset="1"
         stop-color="#333333"
         id="stop23475" /></radialGradient><clipPath
       id="clip0_16_57"><rect
         x="4"
         y="4"
         width="16"
         height="16"
         rx="0.2"
         fill="#ffffff"
         id="rect23478" /></clipPath><radialGradient
       inkscape:collect="always"
       xlink:href="#a"
       id="radialGradient23552"
       gradientUnits="userSpaceOnUse"
       gradientTransform="matrix(0.26458,0,0,0.26458,1.331,3.408)"
       cx="23"
       cy="22.5"
       r="2.5" /><radialGradient
       inkscape:collect="always"
       xlink:href="#b"
       id="radialGradient23554"
       gradientUnits="userSpaceOnUse"
       gradientTransform="matrix(0.26458,0,0,0.26458,1.331,3.408)"
       cx="24.75"
       cy="22"
       r="2.5" /><radialGradient
       inkscape:collect="always"
       xlink:href="#a"
       id="radialGradient23556"
       gradientUnits="userSpaceOnUse"
       gradientTransform="matrix(0.26458,0,0,0.26458,1.331,3.408)"
       cx="27"
       cy="22.75"
       r="2.5" /><radialGradient
       inkscape:collect="always"
       xlink:href="#b"
       id="radialGradient23558"
       gradientUnits="userSpaceOnUse"
       gradientTransform="matrix(0.26458,0,0,0.26458,1.331,3.408)"
       cx="22.799999"
       cy="25"
       r="2.5" /><radialGradient
       inkscape:collect="always"
       xlink:href="#b"
       id="radialGradient23560"
       gradientUnits="userSpaceOnUse"
       gradientTransform="matrix(0.26458,0,0,0.26458,1.331,3.408)"
       cx="26.75"
       cy="25.25"
       r="2.5" /><radialGradient
       inkscape:collect="always"
       xlink:href="#a"
       id="radialGradient23562"
       gradientUnits="userSpaceOnUse"
       gradientTransform="matrix(0.26458,0,0,0.26458,1.331,3.408)"
       cx="24.75"
       cy="26"
       r="2.5" /></defs><path
     fill-rule="evenodd"
     clip-rule="evenodd"
     d="m 2.5389043,0.29462375 c 0.031704,3.3866e-4 0.062012,-0.003701 0.09092,-0.0121177 0.3798548,-0.0248846 0.7597097,-0.0238753 1.139538,0.003029 0.3444278,0.0268335 0.6777962,0.10155567 1.0001582,0.22416646 C 5.30545,0.73034379 5.6721817,1.1130455 5.8696893,1.6578013 5.9826112,1.9857802 6.0493113,2.3230485 6.0697103,2.669585 6.0979403,3.1047631 6.0878343,3.5389358 6.0393893,3.9721825 6.0031421,4.2766858 5.9243242,4.5695209 5.8029887,4.8506616 5.5779386,5.3381468 5.2132441,5.6743991 4.7089053,5.8594186 4.3002114,5.9975284 3.8799291,6.070208 3.4481111,6.0775368 2.9623722,6.102804 2.481512,6.0664245 2.0054937,5.9684777 1.1293194,5.7732984 0.58883922,5.2391417 0.38405311,4.365981 0.29714713,3.9729237 0.25774854,3.5750776 0.26585283,3.1724426 0.25615499,2.7443023 0.30161586,2.3222155 0.40223756,1.9062035 0.61691625,1.0898106 1.1351692,0.58391876 1.9569991,0.38853046 2.1485008,0.34171336 2.3424762,0.31041113 2.5389043,0.29462375 Z"
     fill="url(#paint0_radial_16_57)"
     id="path23457"
     style="fill:url(#paint0_radial_16_57);stroke-width:0.264578" /><g
     transform="matrix(0.5514256,0,0,0.5514256,-1.177189,-2.2058735)"
     stroke-width="0.22"
     id="g23550"><g
       fill="#e48282"
       color="#000000"
       id="g23536"><path
         d="M 7.893,7.64 C 6.826,7.64 5.86,7.815 5.153,8.18 A 2.659,2.659 0 0 0 4.305,8.836 C 4.098,9.09 3.924,9.392 3.924,9.758 c 0,0.366 0.174,0.667 0.381,0.921 0.208,0.254 0.496,0.473 0.849,0.656 0.705,0.365 1.672,0.54 2.738,0.54 1.067,0 2.033,-0.175 2.74,-0.54 0.352,-0.183 0.64,-0.402 0.848,-0.656 0.207,-0.254 0.381,-0.555 0.381,-0.921 0,-0.366 -0.174,-0.668 -0.381,-0.922 A 2.659,2.659 0 0 0 10.631,8.181 C 9.926,7.815 8.959,7.641 7.892,7.641 m 0,0.344 c 1.053,0 2.002,0.197 2.684,0.55 0.341,0.176 0.562,0.381 0.743,0.602 a 0.944,0.944 0 0 1 0.225,0.62 0.944,0.944 0 0 1 -0.225,0.62 2.259,2.259 0 0 1 -0.743,0.603 c -0.683,0.353 -1.631,0.55 -2.684,0.55 -1.053,0 -2,-0.197 -2.683,-0.55 A 2.256,2.256 0 0 1 4.466,10.378 0.944,0.944 0 0 1 4.241,9.758 c 0,-0.182 0.044,-0.4 0.225,-0.62 C 4.647,8.916 4.868,8.711 5.209,8.535 5.892,8.182 6.84,7.985 7.893,7.985"
         id="path23530" /><path
         d="M 6.059,8.699 C 5.525,9.622 5.194,10.547 5.157,11.341 A 2.67,2.67 0 0 0 5.3,12.405 c 0.116,0.306 0.29,0.608 0.608,0.79 0.317,0.184 0.665,0.184 0.988,0.131 C 7.219,13.273 7.553,13.134 7.888,12.919 8.558,12.49 9.192,11.74 9.725,10.817 10.259,9.894 10.59,8.969 10.627,8.175 A 2.67,2.67 0 0 0 10.484,7.111 C 10.368,6.805 10.194,6.503 9.876,6.321 9.559,6.137 9.211,6.137 8.888,6.19 A 2.663,2.663 0 0 0 7.896,6.597 C 7.226,7.026 6.592,7.776 6.059,8.699 M 6.357,8.871 C 6.883,7.959 7.528,7.236 8.175,6.821 8.499,6.615 8.786,6.526 9.068,6.48 a 0.944,0.944 0 0 1 0.65,0.115 c 0.157,0.091 0.323,0.238 0.424,0.505 0.101,0.267 0.168,0.56 0.15,0.944 -0.035,0.768 -0.339,1.688 -0.865,2.6 -0.526,0.912 -1.171,1.634 -1.818,2.05 A 2.262,2.262 0 0 1 6.716,13.035 0.944,0.944 0 0 1 6.066,12.92 0.944,0.944 0 0 1 5.642,12.415 2.26,2.26 0 0 1 5.492,11.471 c 0.035,-0.768 0.339,-1.688 0.865,-2.6"
         id="path23532" /><path
         d="m 9.726,8.707 c 0.534,0.917 0.865,1.835 0.901,2.623 0.019,0.394 -0.027,0.75 -0.143,1.055 -0.116,0.304 -0.29,0.604 -0.607,0.785 C 9.56,13.352 9.212,13.353 8.888,13.3 A 2.672,2.672 0 0 1 7.896,12.896 C 7.227,12.47 6.593,11.726 6.059,10.809 5.525,9.892 5.194,8.974 5.158,8.185 5.139,7.791 5.185,7.435 5.301,7.13 5.417,6.826 5.591,6.527 5.908,6.345 6.225,6.163 6.573,6.163 6.897,6.215 7.22,6.268 7.554,6.407 7.888,6.62 8.558,7.045 9.192,7.79 9.725,8.707 Z M 9.428,8.877 C 8.9,7.974 8.256,7.256 7.609,6.844 A 2.27,2.27 0 0 0 6.716,6.504 0.949,0.949 0 0 0 6.066,6.619 0.94,0.94 0 0 0 5.642,7.121 2.228,2.228 0 0 0 5.492,8.058 c 0.035,0.762 0.34,1.676 0.865,2.581 0.527,0.905 1.172,1.623 1.819,2.034 0.323,0.206 0.61,0.294 0.893,0.34 a 0.949,0.949 0 0 0 0.65,-0.115 0.94,0.94 0 0 0 0.424,-0.5 c 0.1,-0.265 0.168,-0.557 0.15,-0.939 -0.035,-0.762 -0.34,-1.675 -0.865,-2.58 z"
         id="path23534" /></g><circle
       cx="7.4159999"
       cy="9.3610001"
       r="0.66100001"
       fill="url(#c)"
       id="circle23538"
       style="fill:url(#radialGradient23552)" /><circle
       cx="7.8790002"
       cy="9.2279997"
       r="0.66100001"
       fill="url(#d)"
       id="circle23540"
       style="fill:url(#radialGradient23554)" /><circle
       cx="8.4750004"
       cy="9.427"
       r="0.66100001"
       fill="url(#e)"
       id="circle23542"
       style="fill:url(#radialGradient23556)" /><circle
       cx="7.3629999"
       cy="10.022"
       r="0.66100001"
       fill="url(#f)"
       id="circle23544"
       style="fill:url(#radialGradient23558)" /><circle
       cx="8.408"
       cy="10.088"
       r="0.66100001"
       fill="url(#g)"
       id="circle23546"
       style="fill:url(#radialGradient23560)" /><circle
       cx="7.8790002"
       cy="10.287"
       r="0.66100001"
       fill="url(#h)"
       id="circle23548"
       style="fill:url(#radialGradient23562)" /></g></svg>

<svg width="64" height="64" viewBox="0 0 16.933 16.933" xmlns="http://www.w3.org/2000/svg" xmlns:xlink="http://www.w3.org/1999/xlink"><defs><radialGradient id="h" cx="24.75" cy="26" r="2.5" gradientTransform="translate(1.331 3.408) scale(.26458)" gradientUnits="userSpaceOnUse" xlink:href="#a"/><radialGradient id="g" cx="26.75" cy="25.25" r="2.5" gradientTransform="translate(1.331 3.408) scale(.26458)" gradientUnits="userSpaceOnUse" xlink:href="#b"/><radialGradient id="f" cx="22.8" cy="25" r="2.5" gradientTransform="translate(1.331 3.408) scale(.26458)" gradientUnits="userSpaceOnUse" xlink:href="#b"/><radialGradient id="e" cx="27" cy="22.75" r="2.5" gradientTransform="translate(1.331 3.408) scale(.26458)" gradientUnits="userSpaceOnUse" xlink:href="#a"/><radialGradient id="d" cx="24.75" cy="22" r="2.5" gradientTransform="translate(1.331 3.408) scale(.26458)" gradientUnits="userSpaceOnUse" xlink:href="#b"/><radialGradient id="c" cx="23" cy="22.5" r="2.5" gradientTransform="translate(1.331 3.408) scale(.26458)" gradientUnits="userSpaceOnUse" xlink:href="#a"/><linearGradient id="a"><stop stop-color="#bfbfef" offset="0"/><stop stop-color="#a6a6ea" offset="1"/></linearGradient><linearGradient id="b"><stop stop-color="#dedede" offset="0"/><stop stop-color="#d3d3d3" offset="1"/></linearGradient></defs><circle cx="8.466" cy="8.46" r="7.144" fill="#424242" style="paint-order:stroke markers fill"/><g transform="matrix(1.2 0 0 1.2 -1.004 -3.243)" stroke-width=".22"><g fill="#e48282" color="#000"><path d="M7.893 7.64c-1.067 0-2.033.175-2.74.54a2.659 2.659 0 0 0-.848.656c-.207.254-.381.556-.381.922s.174.667.381.921c.208.254.496.473.849.656.705.365 1.672.54 2.738.54 1.067 0 2.033-.175 2.74-.54.352-.183.64-.402.848-.656.207-.254.381-.555.381-.921s-.174-.668-.381-.922a2.659 2.659 0 0 0-.849-.655c-.705-.366-1.672-.54-2.739-.54m0 .344c1.053 0 2.002.197 2.684.55.341.176.562.381.743.602a.944.944 0 0 1 .225.62.944.944 0 0 1-.225.62 2.259 2.259 0 0 1-.743.603c-.683.353-1.631.55-2.684.55s-2-.197-2.683-.55a2.256 2.256 0 0 1-.743-.602.944.944 0 0 1-.225-.62c0-.182.044-.4.225-.62.181-.222.402-.427.743-.603.683-.353 1.631-.55 2.684-.55"/><path d="M6.059 8.699c-.534.923-.865 1.848-.902 2.642a2.67 2.67 0 0 0 .143 1.064c.116.306.29.608.608.79.317.184.665.184.988.131.323-.053.657-.192.992-.407.67-.429 1.304-1.179 1.837-2.102.534-.923.865-1.848.902-2.642a2.67 2.67 0 0 0-.143-1.064c-.116-.306-.29-.608-.608-.79-.317-.184-.665-.184-.988-.131a2.663 2.663 0 0 0-.992.407c-.67.429-1.304 1.179-1.837 2.102m.298.172c.526-.912 1.171-1.635 1.818-2.05.324-.206.611-.295.893-.341a.944.944 0 0 1 .65.115c.157.091.323.238.424.505s.168.56.15.944c-.035.768-.339 1.688-.865 2.6-.526.912-1.171 1.634-1.818 2.05a2.262 2.262 0 0 1-.893.341.944.944 0 0 1-.65-.115.944.944 0 0 1-.424-.505 2.26 2.26 0 0 1-.15-.944c.035-.768.339-1.688.865-2.6"/><path d="M9.726 8.707c.534.917.865 1.835.901 2.623.019.394-.027.75-.143 1.055-.116.304-.29.604-.607.785-.317.182-.665.183-.989.13a2.672 2.672 0 0 1-.992-.404c-.669-.426-1.303-1.17-1.837-2.087-.534-.917-.865-1.835-.901-2.624-.019-.394.027-.75.143-1.055.116-.304.29-.603.607-.785.317-.182.665-.182.989-.13.323.053.657.192.991.405.67.425 1.304 1.17 1.837 2.087zm-.298.17C8.9 7.974 8.256 7.256 7.609 6.844a2.27 2.27 0 0 0-.893-.34.949.949 0 0 0-.65.115.94.94 0 0 0-.424.502 2.228 2.228 0 0 0-.15.937c.035.762.34 1.676.865 2.581.527.905 1.172 1.623 1.819 2.034.323.206.61.294.893.34a.949.949 0 0 0 .65-.115.94.94 0 0 0 .424-.5c.1-.265.168-.557.15-.939-.035-.762-.34-1.675-.865-2.58z"/></g><circle cx="7.416" cy="9.361" r=".661" fill="url(#c)"/><circle cx="7.879" cy="9.228" r=".661" fill="url(#d)"/><circle cx="8.475" cy="9.427" r=".661" fill="url(#e)"/><circle cx="7.363" cy="10.022" r=".661" fill="url(#f)"/><circle cx="8.408" cy="10.088" r=".661" fill="url(#g)"/><circle cx="7.879" cy="10.287" r=".661" fill="url(#h)"/></g></svg>
